X:1
T:Title
%%score { 1 | ( 2 3 ) }
L:1/8
Q:1/4=100
M:4/4
K:F
V:1 treble nm="Grand Piano"
V:2 bass 
V:3 bass 
V:1
 C3 D C2 A2 | FE G2 [A,CF]2 [A,C]2 | A3 B c2 d2 | cA F2 A4 | [A,C]3 [_A,D] [=A,C]2 A2 | %5
w: A.~L.~Byers * * *|||||
 AB [_Ec]2 [Dc]2 [DB]2 | [DF]2 [^CG]2 A2 BA | A3 G [A,CF]4 | C3 D C2 B2 | [EB]2 [FA]G A4 | %10
w: |||||
 F3 F F2 d2 | [Fd]2 [Ec]=B [Ec]4 | A3 B c2 d2 | cA F2 A4 | C3 D C2 FA | [CFA]3 [B,CG] [F,A,CF]4 |] %16
w: ||||||
V:2
 [F,A,]3 [F,_A,] [F,=A,]2 [F,C]2 | [C,C]2 z2 z4 | [F,C]3 [F,G,C] [F,A,F]2 [F,B,F]2 | %3
 [F,F]-[F,CF] [F,A,]2 [F,CF]4 | [F,,F,]3 [F,,F,] [F,,F,]2 [F,C]2 | %5
 [F,C]2 [A,,F,]2 [B,,F,]2 [B,,F,]2 | z4 z2 .G,2 | [C,F,C]3 [C,B,C] [F,,F,]4 | %8
 [C,E,B,]3 [C,F,B,] [C,E,B,]2 [C,G,C]2 | [C,G,]2 z E [F,CF]4 | [F,A,C]3 [F,B,D] [F,A,C]2 [F,A,F]2 | %11
 z2 G,2 z4 | [F,C]3 [F,G,C] [F,A,F]2 [F,B,F]2 | [F,F]-[F,CF] [F,A,]2 [F,CF]4 | z4 z2 .[A,C]2 | %15
 C,3 C, F,,4 |] %16
V:3
 x8 | A,G, [C,B,C]2 [F,,F,]2 [F,,F,]2 | x8 | .A,2 z2 z4 | x8 | x8 | %6
 [B,,F,]2 [B,,F,]2 [C,F,C]2 [C,C]-[C,F,C] | x8 | x8 | z2 [C,C]2 z4 | x8 | [D,A,]2 z D [C,G,]4 | %12
 x8 | .A,2 z2 z4 | [A,,F,]3 [B,,F,B,] [C,F,A,]2 C,-[C,C] | x8 |] %16

